X: 13435
T: Flogging, The
R: reel
M: 4/4
K: Gmajor
dc||{d}BG ~G2 (3.B.A.G dc|{d}BG ~G2 (3Bcd gd|{d}BG G2 (3BAG dB|{d} AFDF A.d.cA|
{d}BG G2 (3.B.A.G dc|{d}BG ~G2 (3Bcd gd|BG G2 (3BAG dB|{d} AFDF AB{d}cA||
g3d {d}BGBd|g2df ea {b}af|g3d {d}BGdB|AD ~F2 ABcA|
~g3d BGBd|~g2df ea ~a2|(3bag af (3gfe dB|AFDF ABcA||
(3Bcd gd (3Bcd gd|(3Bcd gd BG ~G2|(3.A.c.A fd (3.A.c.A fd|(3.A.c.A fd AF~F2|
(3Bcd gd (3Bcd gd|(3Bcd ef g3a|(3bag af (3gfe dB|cBAG F.A.Ad||

